X: 200
T: Eliyahu HaNavi
C: Tracy U Friend
M: C
N: Sung as a round, with both parts at the same time.
L: 1/8
K: Em
%%indent 300
"^Intro"| "Em"z4 "A7"z4 | "Em"z4 "A7"z2 ||
"^A"\
|: "A7"AG | "Em"B2 E2 G B2 A- | "A7"A4 z2 AG | "Em"B2 E2 G B2 A- | "A7"A4 z2 AG |
w: E-li-ya-hu  ha-na-vi_ E-li-ya-hu  ha-tish-bi_ E-li-
            "Em"B2 E6 | "A7"z2 G2 (AG) A2 | "B7"B4- "C9"B4- | "B7"B4 "^=>Coda"z2 :|
w: ya-hu ha-gi-*la-di__
"^B"\
|: "B7"e^d | "Em"e2 BB- B d2 ^c- | "A7"c4 z2 e^d | "Em"e2 BB- B d2 ^c- | "A7"c4 z2 e^d |
w: Bim-he-ra v'-ya-*me-nu* ya-a-vo e-ley__ nu_ i-ma-
             "Em"e2 BB- B d2 ^c- | "A7"c4 z2 ^cd | "B7"^d4- "C9"d4- | "B7"^d4 z2 :|
w:shi-ach ben_ Da-vid_ ben Da-vid__
%
"^Coda"\
|:: AG | "Em"B2 E6- | "A7"E4 z2  AG | "Em"B2 E6- | "A7"E4 z2 ::|
w: E-li-ya-hu_ E-li-ya-hu_



